humanity-icon-theme/Humanity/categories/22/applications-internet.svg

<?xml version="1.0" encoding="UTF-8" standalone="no"?>
<!-- Created with Inkscape (http://www.inkscape.org/) -->

<svg
   xmlns:svg="http://www.w3.org/2000/svg"
   xmlns="http://www.w3.org/2000/svg"
   xmlns:xlink="http://www.w3.org/1999/xlink"
   version="1.0"
   width="22"
   height="22"
   id="svg11300">
  <defs
     id="defs3">
    <linearGradient
       id="linearGradient6493">
      <stop
         id="stop6495"
         style="stop-color:#4580d4;stop-opacity:1"
         offset="0" />
      <stop
         id="stop6497"
         style="stop-color:#114796;stop-opacity:1"
         offset="1" />
    </linearGradient>
    <linearGradient
       id="linearGradient8838">
      <stop
         id="stop8840"
         style="stop-color:#000000;stop-opacity:1"
         offset="0" />
      <stop
         id="stop8842"
         style="stop-color:#000000;stop-opacity:0"
         offset="1" />
    </linearGradient>
    <linearGradient
       id="linearGradient4103">
      <stop
         id="stop4105"
         style="stop-color:#70adfb;stop-opacity:1"
         offset="0" />
      <stop
         id="stop4107"
         style="stop-color:#3465a4;stop-opacity:1"
         offset="1" />
    </linearGradient>
    <linearGradient
       id="linearGradient3156">
      <stop
         id="stop3158"
         style="stop-color:#ffffff;stop-opacity:1"
         offset="0" />
      <stop
         id="stop3160"
         style="stop-color:#ffffff;stop-opacity:0"
         offset="1" />
    </linearGradient>
    <linearGradient
       id="linearGradient8918">
      <stop
         id="stop8920"
         style="stop-color:#debc8c;stop-opacity:1"
         offset="0" />
      <stop
         id="stop8922"
         style="stop-color:#f4ac72;stop-opacity:1"
         offset="1" />
    </linearGradient>
    <linearGradient
       x1="30.501778"
       y1="55.647495"
       x2="29.724815"
       y2="24.653727"
       id="linearGradient5575"
       xlink:href="#linearGradient3156"
       gradientUnits="userSpaceOnUse"
       gradientTransform="matrix(-0.08059924,-0.5392623,0.2445198,0.00827087,8.3674723,28.100056)" />
    <linearGradient
       x1="28.220636"
       y1="-2.3103411"
       x2="28.290144"
       y2="20.663898"
       id="linearGradient5577"
       xlink:href="#linearGradient3156"
       gradientUnits="userSpaceOnUse"
       gradientTransform="matrix(-0.04855999,-0.5424795,0.3393357,-0.01937222,3.6550697,28.930386)" />
    <linearGradient
       x1="27.888655"
       y1="-0.81503254"
       x2="28.290144"
       y2="20.663898"
       id="linearGradient5579"
       xlink:href="#linearGradient3156"
       gradientUnits="userSpaceOnUse"
       gradientTransform="matrix(0.5428466,-0.00339484,5.420695e-4,0.3714024,-4.4842719,4.0901902)" />
    <linearGradient
       x1="24.335312"
       y1="61.852856"
       x2="28.290144"
       y2="20.663898"
       id="linearGradient5581"
       xlink:href="#linearGradient3156"
       gradientUnits="userSpaceOnUse"
       gradientTransform="matrix(0.5341414,-0.140257,0.09691873,0.3439496,-6.5733078,9.6564897)" />
    <radialGradient
       cx="62.625"
       cy="4.625"
       r="10.625"
       fx="62.625"
       fy="4.625"
       id="radialGradient5863"
       xlink:href="#linearGradient8838"
       gradientUnits="userSpaceOnUse"
       gradientTransform="matrix(0.9411766,0,0,0.23529377,-47.941185,21.411765)" />
    <radialGradient
       cx="21.41897"
       cy="13.344281"
       r="14"
       fx="21.41897"
       fy="6.8828115"
       id="radialGradient5552"
       xlink:href="#linearGradient3156"
       gradientUnits="userSpaceOnUse"
       gradientTransform="matrix(0.7071267,0,0,0.4714314,-7.0985956,1.2927432)" />
    <radialGradient
       cx="102.75"
       cy="33"
       r="8.9999971"
       fx="102.75"
       fy="33"
       id="radialGradient5555"
       xlink:href="#linearGradient3156"
       gradientUnits="userSpaceOnUse"
       gradientTransform="matrix(1.1992786,0,0,1.1000055,-115.80087,-32.10029)" />
    <radialGradient
       cx="11.035103"
       cy="7.7554593"
       r="8.1341286"
       fx="11.035103"
       fy="7.7554593"
       id="radialGradient5558"
       xlink:href="#linearGradient8918"
       gradientUnits="userSpaceOnUse"
       gradientTransform="matrix(1.744297,-0.1034483,0.09583636,1.615948,-8.956649,-2.1377274)" />
    <radialGradient
       cx="20.142906"
       cy="16.44101"
       r="22.463524"
       fx="20.142906"
       fy="16.44101"
       id="radialGradient5564"
       xlink:href="#linearGradient4103"
       gradientUnits="userSpaceOnUse"
       gradientTransform="matrix(0.7994533,-0.0030777,0.00248761,0.6470706,-7.5003349,-1.3704805)" />
    <linearGradient
       x1="106"
       y1="40.125046"
       x2="106"
       y2="51"
       id="linearGradient5566"
       xlink:href="#linearGradient6493"
       gradientUnits="userSpaceOnUse"
       gradientTransform="matrix(1.104529,0,0,1.1045344,-106.08016,-32.285922)" />
  </defs>
  <g
     transform="translate(0,-2)"
     id="g6339">
    <path
       d="M 21.000001,22.5 C 21.000001,23.880712 16.522848,25 11,25 5.4771508,25 0.9999982,23.880712 0.9999982,22.5 0.9999982,21.119288 5.4771508,20 11,20 c 5.522848,0 10.000001,1.119288 10.000001,2.5 l 0,0 z"
       id="path6401"
       style="opacity:0.4;fill:url(#radialGradient5863);fill-opacity:1;fill-rule:evenodd;stroke:none;stroke-width:1.06081843;marker:none;visibility:visible;display:inline;overflow:visible;enable-background:new" />
    <path
       d="m 21.49982,13.000038 c 0,5.79595 -4.703958,10.499908 -10.499918,10.499908 C 5.2039517,23.499946 0.5,18.795988 0.5,13.000038 0.5,7.2040868 5.2039517,2.5001256 10.999902,2.5001256 c 5.79596,0 10.499918,4.7039612 10.499918,10.4999124 z"
       id="path6653"
       style="fill:url(#radialGradient5564);fill-opacity:1;stroke:url(#linearGradient5566);stroke-width:1;stroke-linecap:round;stroke-linejoin:round;stroke-miterlimit:4;stroke-opacity:1;stroke-dasharray:none;stroke-dashoffset:0" />
    <path
       d="m 20.681973,10.846613 -0.094,0.362353 c -0.278184,-0.231079 -0.590512,-0.425407 -0.907672,-0.628365 l -0.696202,0.07221 -0.636068,-0.506838 0,0.62725 0.544951,0.29067 0.362719,0.289554 0.484734,-0.386424 c 0.122016,0.161098 0.242367,0.322196 0.363551,0.483295 l 0,0.482766 -0.545784,0.434566 -0.998786,0.483295 -0.756419,0.532083 -0.484735,-0.387599 0.242367,-0.434566 -0.483984,-0.386425 -0.817385,-1.231545 -0.696202,-0.554979 -0.182233,0.144484 0.273267,0.700637 0.514051,0.410495 c 0.293589,0.597426 0.584014,1.168432 0.969552,1.739498 0.597838,0 1.161447,-0.04474 1.755204,-0.09746 l 0,0.338284 -0.726351,1.255909 -0.666135,0.530909 -0.544952,0.822164 c 0,0.450653 0,0.901306 0,1.3519 l 0.182234,0.532082 -0.302584,0.240826 -0.666968,0.290082 -0.696202,0.410496 0.575852,0.458695 -0.787319,0.483883 0.15125,0.313038 -1.181019,0.942578 -0.786486,0 -0.666135,0.290083 -0.4246,0 0,-0.386425 -0.180568,-0.774024 c -0.234288,-0.485056 -0.478237,-0.966649 -0.726352,-1.448241 0,-0.355485 0.03007,-0.707506 0.06022,-1.062932 l 0.303418,-0.482767 -0.424601,-0.580224 0.0309,-0.79692 -0.575852,-0.458696 0.287926,-0.663943 -0.468494,-0.374683 -0.818217,0 L 9.56943,14.300362 8.752044,14.663009 8.4193936,14.396704 7.6621415,14.855635 C 7.1480872,14.444847 6.6332023,14.034352 6.1184017,13.623857 L 5.5132335,12.609066 6.0581848,12.030016 5.7556007,11.788662 6.4209023,10.676943 C 6.967519,10.19764 7.5384562,9.7378287 8.1159729,9.2763149 l 1.0296851,-0.1932124 1.150121,-0.096342 0.787318,0.1450708 1.11997,0.7963331 0.3937,-0.313625 0.544118,-0.048142 1.029686,0.241354 0.787319,0 0.544951,-0.3382831 0.242367,-0.241354 -0.545784,-0.2413541 -0.908502,-0.048142 C 14.03881,8.6920987 13.804522,8.4329554 13.505186,8.2139115 L 13.201769,8.310253 13.080585,8.9386188 12.535634,8.5040524 12.415283,8.0201703 11.810115,7.6830618 l -0.2432,0 0.605918,0.4827662 -0.242368,0.4345665 -0.483984,0.096342 L 11.749065,8.2621701 11.203281,8.0695448 10.720129,7.6831206 9.810794,7.8276037 9.690444,8.0202291 9.145492,8.2621701 8.8429084,8.7936657 8.086489,9.0590902 7.7530059,8.7936657 l -0.3627184,0 0,-0.8697199 0.7873183,-0.2900827 0.6051682,0 L 8.6607581,7.2961676 8.1776058,6.9578845 8.9942421,6.8368842 9.448076,6.4751176 9.810794,6.0399642 l 0.666968,0 -0.182234,-0.3376956 0.424601,-0.1932123 0,0.3864241 0.907669,0.1444838 0.90767,-0.5309079 0.06097,-0.2419411 0.786485,-0.3861313 c -0.284677,0.024952 -0.569354,0.043268 -0.847535,0.096636 l 0,-0.4350946 0.302584,-0.4830604 -0.302584,0 -0.664969,0.4345665 -0.182233,0.2416475 0.182233,0.3385766 L 11.567003,5.6533051 11.083018,5.4600927 10.660082,5.1223972 9.993115,5.4600927 9.750748,4.6875373 l 1.150119,-0.5312021 0,-0.2900829 0.727102,-0.3379894 1.150119,-0.1935059 0.787319,0.1935059 1.089902,0.4827669 -0.787318,0 0.787318,0.5796372 0.605169,-0.4827669 c 0,0 2.408071,1.208526 3.651817,2.879887 1.21019,1.6262682 1.716766,3.4746909 1.769682,3.8588259 z"
       id="path6657"
       style="fill:url(#radialGradient5558);fill-opacity:1;fill-rule:nonzero;stroke:none" />
    <path
       d="m 20.373842,12.999947 c 0,5.174547 -4.199528,9.374184 -9.373932,9.374184 -5.1743926,0 -9.3739157,-4.199637 -9.3739157,-9.374184 0,-5.1745542 4.1995231,-9.3741868 9.3739157,-9.3741868 5.174404,0 9.373932,4.1996326 9.373932,9.3741868 z"
       id="path6661"
       style="opacity:0.4;fill:none;stroke:url(#radialGradient5555);stroke-width:1.05171168;stroke-linecap:round;stroke-linejoin:round;stroke-miterlimit:4;stroke-opacity:1;stroke-dasharray:none;stroke-dashoffset:0" />
    <path
       d="m 21.009693,9.5518426 c 0,3.6432204 -4.43511,5.6481144 -9.899775,5.6481144 -5.4646866,0 -9.8997746,-2.004894 -9.8997746,-5.6481144 0,-3.6432191 4.435088,-7.551951 9.8997746,-7.551951 5.464665,0 9.899775,3.9087319 9.899775,7.551951 z"
       id="path6663"
       style="opacity:0.4;fill:url(#radialGradient5552);fill-opacity:1;stroke:none" />
    <path
       d="m 20.347476,11.545446 c 0.936718,3.324267 -2.488929,7.118033 -7.651397,8.473615 C 7.5336115,21.374643 2.5892447,19.778708 1.6525268,16.454441 0.71580892,13.130173 4.141456,9.3364065 9.3039235,7.980825 14.466391,6.6252435 19.410758,8.2211785 20.347476,11.545446 l 0,0 z"
       id="path6665"
       style="opacity:0.5;fill:none;stroke:url(#linearGradient5581);stroke-width:0.99693888;stroke-linecap:round;stroke-linejoin:miter;stroke-miterlimit:4;stroke-opacity:1;stroke-dasharray:none;stroke-dashoffset:0" />
    <path
       d="m 20.499817,12.940536 c 0.0052,3.589598 -4.243726,6.52614 -9.490329,6.558951 -5.2466036,0.03281 -9.504063,-2.850534 -9.5093021,-6.440132 -0.00524,-3.5895977 4.2437261,-6.5261405 9.4903291,-6.5589515 5.246603,-0.032811 9.504063,2.8505344 9.509302,6.4401325 l 0,0 z"
       id="path6667"
       style="opacity:0.5;fill:none;stroke:url(#linearGradient5579);stroke-width:1.00036085;stroke-linecap:round;stroke-linejoin:miter;stroke-miterlimit:4;stroke-opacity:1;stroke-dasharray:none;stroke-dashoffset:0" />
    <path
       d="M 9.6502009,3.5065527 C 12.929875,3.3193205 15.969044,7.4178749 16.438375,12.66093 16.907707,17.903985 14.629474,22.306103 11.349801,22.493335 8.0701268,22.680567 5.0309574,18.582013 4.561626,13.338958 4.0922945,8.0959026 6.3705271,3.6937848 9.6502009,3.5065527 l 0,0 z"
       id="path6669"
       style="opacity:0.5;fill:none;stroke:url(#linearGradient5577);stroke-width:1.00090492;stroke-linecap:round;stroke-linejoin:miter;stroke-miterlimit:4;stroke-opacity:1;stroke-dasharray:none;stroke-dashoffset:0" />
    <path
       d="m 10.589512,3.4945588 c 2.36328,0.079938 6.600734,5.21494 7.379724,10.4269012 0.778991,5.211961 -2.19547,8.527217 -4.55875,8.447279 C 11.047206,22.288801 8.4998929,17.99887 7.7209026,12.786909 6.9419123,7.5749479 8.2262327,3.414621 10.589512,3.4945588 l 0,0 z"
       id="path6671"
       style="opacity:0.9;fill:none;stroke:url(#linearGradient5575);stroke-width:0.98696023;stroke-linecap:round;stroke-linejoin:miter;stroke-miterlimit:4;stroke-opacity:1;stroke-dasharray:none;stroke-dashoffset:0" />
    <g
       transform="matrix(0.4978052,-0.1384166,0.1354093,0.5088599,-1.6469618,2.0421968)"
       id="g6673"
       style="opacity:0.6;stroke-width:2.10801268;stroke-miterlimit:4;stroke-dasharray:none">
      <path
         d="m 31.375,37.875 c 0,0.966498 -0.783502,1.75 -1.75,1.75 -0.966498,0 -1.75,-0.783502 -1.75,-1.75 0,-0.966498 0.783502,-1.75 1.75,-1.75 0.966498,0 1.75,0.783502 1.75,1.75 l 0,0 z"
         transform="matrix(0.857144,0,0,0.857144,4.107111,5.035669)"
         id="path6675"
         style="opacity:0.8;fill:#ffffff;fill-opacity:1;stroke:none" />
    </g>
    <g
       transform="matrix(0.4917231,-0.1197442,0.1560474,0.5135838,-14.083564,4.1818591)"
       id="g6677"
       style="opacity:0.6;stroke-width:2.11123228;stroke-miterlimit:4;stroke-dasharray:none">
      <path
         d="m 31.375,37.875 c 0,0.966498 -0.783502,1.75 -1.75,1.75 -0.966498,0 -1.75,-0.783502 -1.75,-1.75 0,-0.966498 0.783502,-1.75 1.75,-1.75 0.966498,0 1.75,0.783502 1.75,1.75 l 0,0 z"
         transform="matrix(0.857144,0,0,0.857144,4.107111,5.035669)"
         id="path6679"
         style="opacity:0.5;fill:#ffffff;fill-opacity:1;stroke:none" />
    </g>
    <g
       transform="matrix(0.4770536,-0.1681466,0.1964147,0.4998221,-6.45207,-6.907361)"
       id="g6681"
       style="opacity:0.6;stroke-width:2.11029315;stroke-miterlimit:4;stroke-dasharray:none">
      <path
         d="m 31.375,37.875 c 0,0.966498 -0.783502,1.75 -1.75,1.75 -0.966498,0 -1.75,-0.783502 -1.75,-1.75 0,-0.966498 0.783502,-1.75 1.75,-1.75 0.966498,0 1.75,0.783502 1.75,1.75 l 0,0 z"
         transform="matrix(0.857144,0,0,0.857144,4.107111,5.035669)"
         id="path6683"
         style="opacity:0.8;fill:#ffffff;fill-opacity:1;stroke:none" />
    </g>
    <g
       transform="matrix(0.515925,-0.148755,-0.00869059,0.5059317,-10.119891,-6.3754074)"
       id="g6685"
       style="opacity:0.6;stroke-width:2.15745258;stroke-miterlimit:4;stroke-dasharray:none">
      <path
         d="m 31.375,37.875 c 0,0.966498 -0.783502,1.75 -1.75,1.75 -0.966498,0 -1.75,-0.783502 -1.75,-1.75 0,-0.966498 0.783502,-1.75 1.75,-1.75 0.966498,0 1.75,0.783502 1.75,1.75 l 0,0 z"
         transform="matrix(0.857144,0,0,0.857144,4.107111,5.035669)"
         id="path6687"
         style="opacity:0.5;fill:#ffffff;fill-opacity:1;stroke:none" />
    </g>
  </g>
</svg>

<?xml version="1.0" encoding="UTF-8" standalone="no"?>
<!-- Created with Inkscape (http://www.inkscape.org/) -->
<svg id="svg11300" xmlns="http://www.w3.org/2000/svg" height="22" width="22" version="1.0" xmlns:xlink="http://www.w3.org/1999/xlink">
 <defs id="defs3">
  <linearGradient id="linearGradient3156">
   <stop id="stop3158" style="stop-color:#fff" offset="0"/>
   <stop id="stop3160" style="stop-color:#fff;stop-opacity:0" offset="1"/>
  </linearGradient>
  <linearGradient id="linearGradient5575" y2="24.654" xlink:href="#linearGradient3156" gradientUnits="userSpaceOnUse" x2="29.725" gradientTransform="matrix(-.080599 -.53926 .24452 .0082709 8.3675 28.1)" y1="55.647" x1="30.502"/>
  <linearGradient id="linearGradient5577" y2="20.664" xlink:href="#linearGradient3156" gradientUnits="userSpaceOnUse" x2="28.29" gradientTransform="matrix(-.048560 -.54248 .33934 -.019372 3.6551 28.93)" y1="-2.3103" x1="28.221"/>
  <linearGradient id="linearGradient5579" y2="20.664" xlink:href="#linearGradient3156" gradientUnits="userSpaceOnUse" x2="28.29" gradientTransform="matrix(.54285 -.0033948 .00054207 .37140 -4.4843 4.0902)" y1="-.81503" x1="27.889"/>
  <linearGradient id="linearGradient5581" y2="20.664" xlink:href="#linearGradient3156" gradientUnits="userSpaceOnUse" x2="28.29" gradientTransform="matrix(.53414 -.14026 .096919 .34395 -6.5733 9.6565)" y1="61.853" x1="24.335"/>
  <radialGradient id="radialGradient5863" gradientUnits="userSpaceOnUse" cy="4.625" cx="62.625" gradientTransform="matrix(.94118 0 0 .23529 -47.941 21.412)" r="10.625">
   <stop id="stop8840" offset="0"/>
   <stop id="stop8842" style="stop-opacity:0" offset="1"/>
  </radialGradient>
  <radialGradient id="radialGradient5552" fy="6.8828" xlink:href="#linearGradient3156" gradientUnits="userSpaceOnUse" cy="13.344" cx="21.419" gradientTransform="matrix(.70713 0 0 .47143 -7.0986 1.2927)" r="14"/>
  <radialGradient id="radialGradient5555" xlink:href="#linearGradient3156" gradientUnits="userSpaceOnUse" cy="33" cx="102.75" gradientTransform="matrix(1.1993 0 0 1.1 -115.8 -32.1)" r="9"/>
  <radialGradient id="radialGradient5558" gradientUnits="userSpaceOnUse" cy="7.7555" cx="11.035" gradientTransform="matrix(1.7443 -.10345 .095836 1.6159 -8.9566 -2.1377)" r="8.1341">
   <stop id="stop8920" style="stop-color:#debc8c" offset="0"/>
   <stop id="stop8922" style="stop-color:#f4ac72" offset="1"/>
  </radialGradient>
  <radialGradient id="radialGradient5564" gradientUnits="userSpaceOnUse" cy="16.441" cx="20.143" gradientTransform="matrix(.79945 -.0030777 .0024876 .64707 -7.5003 -1.3705)" r="22.464">
   <stop id="stop4105" style="stop-color:#70adfb" offset="0"/>
   <stop id="stop4107" style="stop-color:#3465a4" offset="1"/>
  </radialGradient>
  <linearGradient id="linearGradient5566" y2="51" gradientUnits="userSpaceOnUse" x2="106" gradientTransform="matrix(1.1045 0 0 1.1045 -106.08 -32.286)" y1="40.125" x1="106">
   <stop id="stop6495" style="stop-color:#4580d4" offset="0"/>
   <stop id="stop6497" style="stop-color:#114796" offset="1"/>
  </linearGradient>
 </defs>
 <g id="g6339" transform="translate(0,-2)">
  <path id="path6401" style="opacity:.4;fill-rule:evenodd;enable-background:new;fill:url(#radialGradient5863)" d="m21 22.5c0 1.381-4.477 2.5-10 2.5-5.5228 0-10-1.119-10-2.5s4.4772-2.5 10-2.5 10 1.1193 10 2.5z"/>
  <path id="path6653" style="stroke-linejoin:round;stroke:url(#linearGradient5566);stroke-linecap:round;fill:url(#radialGradient5564)" d="m21.5 13c0 5.796-4.704 10.5-10.5 10.5s-10.5-4.704-10.5-10.5c0-5.7959 4.704-10.5 10.5-10.5s10.5 4.704 10.5 10.5z"/>
  <path id="path6657" style="fill:url(#radialGradient5558)" d="m20.682 10.847-0.094 0.36235c-0.27818-0.23108-0.59051-0.42541-0.90767-0.62836l-0.6962 0.07221-0.63607-0.50684v0.62725l0.54495 0.29067 0.36272 0.28955 0.48473-0.38642c0.12202 0.1611 0.24237 0.3222 0.36355 0.4833v0.48277l-0.54578 0.43457-0.99879 0.4833-0.75642 0.53208-0.48474-0.3876 0.24237-0.43457-0.48398-0.38642-0.81738-1.2315-0.6962-0.55498-0.18223 0.14448 0.27327 0.70064 0.51405 0.4105c0.29359 0.59743 0.58401 1.1684 0.96955 1.7395 0.59784 0 1.1614-0.04474 1.7552-0.09746v0.33828l-0.72635 1.2559-0.66614 0.53091-0.54495 0.82216v1.3519l0.18223 0.53208-0.30258 0.24083-0.66697 0.29008-0.6962 0.4105 0.57585 0.4587-0.78732 0.48388 0.15125 0.31304-1.181 0.94258h-0.78649l-0.66614 0.29008h-0.4246v-0.38642l-0.18057-0.77402c-0.23429-0.48506-0.47824-0.96665-0.72635-1.4482 0-0.35548 0.03007-0.70751 0.06022-1.0629l0.30342-0.48277-0.4246-0.58022 0.0309-0.79692-0.57585-0.4587 0.28793-0.66394-0.46849-0.37468h-0.81822l-0.2727-0.217-0.8174 0.363-0.3326-0.266-0.7573 0.459c-0.514-0.411-1.0289-0.822-1.5437-1.232l-0.6052-1.015 0.545-0.579-0.3026-0.241 0.6653-1.112c0.5466-0.479 1.1176-0.9392 1.6951-1.4007l1.0297-0.19321 1.1501-0.096342 0.78732 0.14507 1.12 0.79633 0.3937-0.31362 0.54412-0.048142 1.0297 0.24135h0.78732l0.54495-0.33828 0.24237-0.24135-0.54578-0.24135-0.9085-0.048142c-0.252-0.2465-0.486-0.5056-0.786-0.7247l-0.303 0.0964-0.121 0.6283-0.545-0.4345-0.121-0.4839-0.605-0.3371h-0.2432l0.60592 0.48277-0.24237 0.43457-0.48398 0.096342 0.303-0.4346-0.546-0.1927-0.483-0.3864-0.9092 0.1445-0.1204 0.1926-0.5449 0.242-0.3026 0.5315-0.7564 0.2654-0.3335-0.2654h-0.36272v-0.86972l0.78732-0.29008h0.60517l-0.122-0.3377-0.4832-0.3383 0.8166-0.121 0.4539-0.3618 0.3627-0.4351h0.66697l-0.18223-0.3377 0.4246-0.19321v0.38642l0.90767 0.14448 0.90767-0.53091 0.06097-0.24194 0.78648-0.38613c-0.28468 0.024952-0.56935 0.043268-0.84754 0.096636v-0.43509l0.30258-0.48306h-0.30258l-0.66497 0.43457-0.18223 0.24165 0.18223 0.33858-0.303 0.5791-0.484-0.1932-0.423-0.3377-0.6669 0.3377-0.2424-0.7726 1.1501-0.5312v-0.29008l0.7271-0.33799 1.1501-0.19351 0.78732 0.19351 1.0899 0.48277h-0.78732l0.78732 0.57964 0.60517-0.48277s2.4081 1.2085 3.6518 2.8799c1.2102 1.6263 1.7168 3.4747 1.7697 3.8588z"/>
  <path id="path6661" style="opacity:.4;stroke-linejoin:round;stroke:url(#radialGradient5555);stroke-linecap:round;stroke-width:1.0517;fill:none" d="m20.374 13c0 5.1745-4.1995 9.3742-9.3739 9.3742s-9.3739-4.1996-9.3739-9.3742 4.1995-9.3742 9.3739-9.3742 9.3739 4.1996 9.3739 9.3742z"/>
  <path id="path6663" style="opacity:.4;fill:url(#radialGradient5552)" d="m21.01 9.5518c0 3.6432-4.4351 5.6481-9.8998 5.6481s-9.8998-2.0049-9.8998-5.6481 4.4351-7.552 9.8998-7.552 9.8998 3.9087 9.8998 7.552z"/>
  <path id="path6665" style="opacity:.5;stroke:url(#linearGradient5581);stroke-linecap:round;stroke-width:.99694;fill:none" d="m20.347 11.545c0.93672 3.3243-2.4889 7.118-7.6514 8.4736-5.1624 1.356-10.107-0.24-11.044-3.565-0.93619-3.324 2.4895-7.1176 7.6519-8.4732 5.1621-1.3556 10.107 0.2404 11.043 3.5642z"/>
  <path id="path6667" style="opacity:.5;stroke:url(#linearGradient5579);stroke-linecap:round;stroke-width:1.0004;fill:none" d="m20.5 12.941c0.0052 3.5896-4.2437 6.5261-9.4903 6.559-5.2466 0.03281-9.5041-2.8505-9.5093-6.4401-0.00524-3.5896 4.2437-6.5261 9.4903-6.559 5.2466-0.032811 9.5041 2.8505 9.5093 6.4401z"/>
  <path id="path6669" style="opacity:.5;stroke:url(#linearGradient5577);stroke-linecap:round;stroke-width:1.0009;fill:none" d="m9.6502 3.5066c3.2798-0.1873 6.3188 3.9113 6.7878 9.1544 0.47 5.243-1.809 9.645-5.088 9.832-3.2799 0.188-6.319-3.911-6.7884-9.154-0.4693-5.2431 1.8089-9.6452 5.0886-9.8324z"/>
  <path id="path6671" style="opacity:.9;stroke:url(#linearGradient5575);stroke-linecap:round;stroke-width:.98696;fill:none" d="m10.59 3.4946c2.3633 0.079938 6.6007 5.2149 7.3797 10.427 0.77899 5.212-2.1955 8.5272-4.5588 8.4473-2.364-0.08-4.9111-4.37-5.6901-9.582-0.779-5.2121 0.5053-9.3724 2.8691-9.2924z"/>
  <g id="g6673" style="opacity:.6;stroke-width:2.108" transform="matrix(.49781 -.13842 .13541 .50886 -1.647 2.0422)">
   <path id="path6675" style="opacity:.8;fill:#fff" d="m31.375 37.875c0 0.9665-0.7835 1.75-1.75 1.75s-1.75-0.7835-1.75-1.75 0.7835-1.75 1.75-1.75 1.75 0.7835 1.75 1.75z" transform="matrix(.85714 0 0 .85714 4.1071 5.0357)"/>
  </g>
  <g id="g6677" style="opacity:.6;stroke-width:2.1112" transform="matrix(.49172 -.11974 .15605 .51358 -14.084 4.1819)">
   <path id="path6679" style="opacity:.5;fill:#fff" d="m31.375 37.875c0 0.9665-0.7835 1.75-1.75 1.75s-1.75-0.7835-1.75-1.75 0.7835-1.75 1.75-1.75 1.75 0.7835 1.75 1.75z" transform="matrix(.85714 0 0 .85714 4.1071 5.0357)"/>
  </g>
  <g id="g6681" style="opacity:.6;stroke-width:2.1103" transform="matrix(.47705 -.16815 .19641 .49982 -6.4521 -6.9074)">
   <path id="path6683" style="opacity:.8;fill:#fff" d="m31.375 37.875c0 0.9665-0.7835 1.75-1.75 1.75s-1.75-0.7835-1.75-1.75 0.7835-1.75 1.75-1.75 1.75 0.7835 1.75 1.75z" transform="matrix(.85714 0 0 .85714 4.1071 5.0357)"/>
  </g>
  <g id="g6685" style="opacity:.6;stroke-width:2.1575" transform="matrix(.51592 -.14876 -.0086906 .50593 -10.12 -6.3754)">
   <path id="path6687" style="opacity:.5;fill:#fff" d="m31.375 37.875c0 0.9665-0.7835 1.75-1.75 1.75s-1.75-0.7835-1.75-1.75 0.7835-1.75 1.75-1.75 1.75 0.7835 1.75 1.75z" transform="matrix(.85714 0 0 .85714 4.1071 5.0357)"/>
  </g>
 </g>
</svg>
